www/assets/icons/undo.svg

<svg width="24" height="24" viewBox="0 0 24 24" xmlns="http://www.w3.org/2000/svg" fill='currentColor'><path d="M12.265 8.5C9.61501 8.5 7.21501 9.49 5.36501 11.1L1.76501 7.5V16.5H10.765L7.14501 12.88C8.53501 11.72 10.305 11 12.265 11C15.805 11 18.815 13.31 19.865 16.5L22.235 15.72C20.845 11.53 16.915 8.5 12.265 8.5Z"/></svg>

<svg xmlns="http://www.w3.org/2000/svg" width="24" height="24" viewBox="0 0 24 24" fill='currentColor'><path d="M12.265 8.5c-2.65 0-5.05.99-6.9 2.6l-3.6-3.6v9h9l-3.62-3.62c1.39-1.16 3.16-1.88 5.12-1.88 3.54 0 6.55 2.31 7.6 5.5l2.37-.78c-1.39-4.19-5.32-7.22-9.97-7.22"/></svg>
